packages/kaspersky-hexa-ui-icons/src/iconsSVGs/24/Paste1.svg

<svg width="24" height="24" viewBox="0 0 24 24" fill="none" xmlns="http://www.w3.org/2000/svg">
<path d="M9 2C8.44772 2 8 2.44772 8 3C8 3.55228 8.44772 4 9 4H17C18.6569 4 20 5.34315 20 7V15C20 15.5523 20.4477 16 21 16C21.5523 16 22 15.5523 22 15V7C22 4.23858 19.7614 2 17 2H9Z" fill="black"/>
<path d="M10 10C10.5523 10 11 10.4477 11 11V13H13C13.5523 13 14 13.4477 14 14C14 14.5523 13.5523 15 13 15H11V17C11 17.5523 10.5523 18 10 18C9.44772 18 9 17.5523 9 17V15H7C6.44772 15 6 14.5523 6 14C6 13.4477 6.44772 13 7 13H9V11C9 10.4477 9.44772 10 10 10Z" fill="black"/>
<path fill-rule="evenodd" clip-rule="evenodd" d="M2 9C2 7.34315 3.34315 6 5 6H15C16.6569 6 18 7.34315 18 9V19C18 20.6569 16.6569 22 15 22H5C3.34315 22 2 20.6569 2 19V9ZM5 8H15C15.5523 8 16 8.44772 16 9V19C16 19.5523 15.5523 20 15 20H5C4.44772 20 4 19.5523 4 19V9C4 8.44772 4.44772 8 5 8Z" fill="black"/>
</svg>

<svg xmlns="http://www.w3.org/2000/svg" width="24" height="24" fill="none" viewBox="0 0 24 24"><path fill="#000" d="M9 2c-.552 0-1 .448-1 1s.448 1 1 1h8c1.657 0 3 1.343 3 3v8c0 .552.448 1 1 1s1-.448 1-1V7c0-2.761-2.239-5-5-5zm1 8c.552 0 1 .448 1 1v2h2c.552 0 1 .448 1 1s-.448 1-1 1h-2v2c0 .552-.448 1-1 1s-1-.448-1-1v-2H7c-.552 0-1-.448-1-1s.448-1 1-1h2v-2c0-.552.448-1 1-1"/><path fill="#000" fill-rule="evenodd" d="M2 9c0-1.6569 1.3432-3 3-3h10c1.6569 0 3 1.3431 3 3v10c0 1.6569-1.3431 3-3 3H5c-1.6568 0-3-1.3431-3-3zm3-1h10c.5523 0 1 .4477 1 1v10c0 .5523-.4477 1-1 1H5c-.5523 0-1-.4477-1-1V9c0-.5523.4477-1 1-1" clip-rule="evenodd"/></svg>
